X:1
T:Brown Girl
M:3/4
L:1/4
K:C
D/2-E/2-G/2| A A c|
M:4/4
 B A2B/2-A/2|
M:3/4
G/2-E/2 D E| D2 G| A A A|
M:4/4
 B d2e/2-d/2|
M:3/4
 d BA/2-G/2| A2 G| A A A-|
M:4/4
 B d2e/2-d/2|
M:3/4
d/2-B/2 A/2G/2 B| A2D/2-D/2| G A c-|
M:4/4
 B A2 A/2G/2|
M:3/4
 E D E| D2||
